X:305
T:Shuters Hornpipe
A:Wyresdale, Lancashire
B:E and J Winder, 1835-41
L:1/8
M:C|
N:"A Good Tune"
O:England
Z:Richard Robinson 
%%TUNEURL: http://www.leeds.ac.uk/music/Info/RRTuneBk/gettune/00000eb5.html
%%ID:00000eb5
K:G
(G2G2) GABc | dcBA GBAG | A2A>A A2(ed) | cBAG FAFD | \
G2G2   GABc | dcBA G2g2 | fafd   egec  | d2d>d d4 ::
A2A>A A2(Bc) | dcBA FAFD | d2d>d d2(ef) | gfed cecA |\
e2c2  (efge) | d2B2 cdec | BABc  dcBA   | G2G>G G4 ::
